public/assets/community.svg

<svg width="44" height="16" viewBox="0 0 44 16" fill="none" xmlns="http://www.w3.org/2000/svg">
<path d="M5.95167 0.10467C4.91785 0.381586 4.12864 1.16157 3.8748 2.15385C3.35327 4.20303 5.15784 6.0999 7.21625 5.66607C8.26853 5.44454 9.11313 4.63225 9.39004 3.57997C9.48235 3.23382 9.48235 2.51384 9.39004 2.1677C9.18235 1.37387 8.63314 0.695424 7.91316 0.321588C7.35009 0.0354409 6.54704 -0.0568643 5.95167 0.10467Z" fill="#5A5A5A" fill-opacity="0.64"/>
<path d="M16.336 0.104687C15.7776 0.252376 15.436 0.450832 15.0207 0.866207C14.596 1.2862 14.393 1.62773 14.2591 2.1631C13.7099 4.31381 15.7452 6.25684 17.859 5.60147C18.6806 5.34302 19.3313 4.72919 19.6867 3.86613C19.8113 3.56152 19.8205 3.50152 19.8205 2.89692C19.8205 2.16771 19.7513 1.89541 19.4375 1.3785C18.8144 0.344681 17.4806 -0.204535 16.336 0.104687Z" fill="#5A5A5A" fill-opacity="0.64"/>
<path d="M26.7202 0.109275C26.1663 0.252349 25.8202 0.450806 25.4048 0.866179C24.9802 1.28617 24.7772 1.6277 24.6433 2.16307C24.4679 2.8369 24.5602 3.60765 24.8833 4.2261C25.1002 4.64608 25.6864 5.21376 26.1248 5.42607C27.2463 5.9799 28.5386 5.75836 29.4247 4.86762C29.7478 4.53993 30.0386 4.03225 30.1539 3.58457C30.2462 3.21997 30.2509 2.53229 30.1539 2.16769C29.7616 0.658493 28.2063 -0.278407 26.7202 0.109275Z" fill="#5A5A5A" fill-opacity="0.64"/>
<path d="M37.1051 0.109293C36.5836 0.243136 36.2097 0.446208 35.8405 0.796969C35.4759 1.14311 35.2636 1.4708 35.0836 1.94156C34.9775 2.21847 34.9636 2.31539 34.9636 2.87384C34.9636 3.43229 34.9775 3.52921 35.0836 3.80612C35.2636 4.27688 35.4759 4.60457 35.8405 4.95071C37.2251 6.26606 39.4589 5.85992 40.3312 4.13381C40.525 3.74613 40.6127 3.35383 40.6127 2.85538C40.6127 2.38924 40.5296 2.01078 40.3266 1.60003C39.7543 0.423131 38.3651 -0.21839 37.1051 0.109293Z" fill="#5A5A5A" fill-opacity="0.64"/>
<path d="M11.102 6.66767C11.4436 7.04151 11.7805 7.55842 12.1174 8.23686L12.3897 8.78146H13.0635H13.7374L13.765 8.99838C13.7835 9.12299 13.9081 10.4245 14.0512 11.8968C14.2173 13.6275 14.3327 14.6429 14.3835 14.7767C14.4804 15.049 14.6789 15.2613 14.965 15.3998C15.2927 15.5613 16.2573 15.6351 17.4942 15.5936C18.7726 15.5521 19.0218 15.4967 19.3311 15.1875C19.6357 14.8828 19.6357 14.8921 19.9126 11.8414C20.051 10.2907 20.1664 8.96607 20.1664 8.90146V8.78146H20.9049H21.6433L21.8925 8.28301C22.1925 7.67841 22.6033 7.05997 22.9587 6.66767L23.2217 6.38152H17.028H10.8344L11.102 6.66767Z" fill="#5A5A5A" fill-opacity="0.64"/>
<path d="M4.5901 6.474C3.81012 6.58015 3.09475 7.0786 2.54092 7.8955C2.29631 8.25549 1.85324 9.17393 1.66402 9.70469C1.59017 9.9216 1.44248 10.3139 1.34556 10.5816C1.13788 11.117 0.85173 12.1369 0.662504 12.9954C0.551737 13.4846 0.542507 13.5815 0.58866 13.7984C0.699426 14.3338 1.11942 14.6846 1.70094 14.7261C2.08862 14.7538 2.40708 14.6292 2.66553 14.3476C2.88245 14.1123 2.93783 13.9646 3.18244 12.9354C3.3809 12.1231 3.60705 11.38 3.77781 10.997L3.87012 10.7893V11.0893C3.87473 11.2554 3.89781 12.1277 3.92088 13.0277C3.96704 14.6384 3.97165 14.6707 4.08703 14.9061C4.32703 15.4045 4.6224 15.5476 5.56392 15.6168C6.32544 15.6768 7.81156 15.6445 8.28693 15.5615C8.80845 15.4692 9.17306 15.123 9.26998 14.6292C9.29306 14.4953 9.32998 13.6323 9.34382 12.7046C9.36229 11.7769 9.38536 10.9785 9.39921 10.9277C9.45459 10.7431 9.74535 11.6385 10.1284 13.1569C10.2576 13.6738 10.3823 14.0707 10.4515 14.1815C10.6684 14.523 11.0515 14.7353 11.4576 14.7353C11.7991 14.7353 12.0853 14.6246 12.3114 14.4076C12.7684 13.9738 12.7822 13.743 12.4407 12.3723C12.173 11.2877 11.9053 10.4847 11.4761 9.44623C10.8622 7.96934 10.3038 7.20321 9.53305 6.77861C8.96076 6.46015 8.95153 6.46015 6.80543 6.44631C5.7393 6.44169 4.7424 6.45092 4.5901 6.474Z" fill="#5A5A5A" fill-opacity="0.64"/>
<path d="M25.3589 6.47379C24.4497 6.5984 23.6836 7.203 23.0836 8.26451C22.7559 8.83681 22.599 9.21987 22.0405 10.7752C21.8052 11.4398 21.3206 13.3136 21.3206 13.5767C21.3206 14.6013 22.6359 15.1228 23.3882 14.3982C23.4759 14.3151 23.5728 14.1905 23.6143 14.1167C23.6513 14.0474 23.8036 13.5075 23.9513 12.9167C24.182 11.9983 24.4682 11.0937 24.602 10.8583C24.6251 10.8168 24.6435 10.9506 24.6435 11.2044C24.6435 11.4306 24.6666 12.3029 24.6897 13.1336C24.7312 14.5182 24.7451 14.6659 24.8328 14.8782C24.9435 15.132 25.1697 15.3536 25.4512 15.4782C25.922 15.6859 28.5342 15.7136 29.2542 15.5197C29.5034 15.4551 29.845 15.1459 29.965 14.8736C30.0526 14.6844 30.0665 14.5136 30.1126 12.7275C30.1542 11.2137 30.1726 10.8168 30.2142 10.9091C30.3849 11.306 30.5926 11.9798 30.8326 12.9352C31.0126 13.6459 31.1465 14.0798 31.2203 14.1905C31.6311 14.8136 32.5449 14.9243 33.0756 14.4167C33.3018 14.1951 33.4218 13.9505 33.4495 13.6505C33.4679 13.4013 33.191 12.169 32.8864 11.1814C32.7203 10.6229 32.2357 9.39525 31.9311 8.73989C31.5111 7.84452 30.9019 7.11069 30.2973 6.77378C29.7342 6.45994 29.7203 6.45994 27.5742 6.4461C26.5081 6.44148 25.5112 6.45071 25.3589 6.47379Z" fill="#5A5A5A" fill-opacity="0.64"/>
<path d="M31.8621 6.70447C32.2867 7.16599 32.7436 7.89521 33.0343 8.58288L33.1405 8.82749H33.9436H34.7512V8.97518C34.7512 9.05826 34.8158 10.3736 34.8897 11.892C35.0235 14.6473 35.0281 14.6612 35.1435 14.9058C35.2866 15.1919 35.5774 15.455 35.8174 15.5196C36.445 15.6904 39.0111 15.6904 39.6388 15.5196C39.8742 15.4596 40.2111 15.155 40.3403 14.892C40.4326 14.6935 40.4465 14.5873 40.4788 13.4012C40.4972 12.6997 40.5157 11.8274 40.5157 11.4582C40.5203 11.0751 40.5388 10.8121 40.5619 10.8351C40.6542 10.9367 40.9588 11.9197 41.2172 12.9351C41.3972 13.6551 41.5311 14.0751 41.6049 14.1904C41.9095 14.6473 42.4772 14.8412 43.031 14.6797C43.2849 14.6058 43.6679 14.2227 43.7418 13.9689C43.8341 13.6597 43.8064 13.4381 43.5849 12.552C43.2018 11.0013 42.8418 9.96746 42.2741 8.74903C41.8634 7.8629 41.2357 7.106 40.6542 6.78293C40.0219 6.43217 40.3265 6.45524 35.725 6.43678L31.599 6.42294L31.8621 6.70447Z" fill="#5A5A5A" fill-opacity="0.64"/>
</svg>

<svg width="44" height="16" fill="none" xmlns="http://www.w3.org/2000/svg"><path d="M5.952.105C4.918.382 4.129 1.162 3.875 2.154 3.353 4.203 5.158 6.1 7.216 5.666A2.876 2.876 0 0 0 9.39 3.58c.092-.346.092-1.066 0-1.412A2.937 2.937 0 0 0 7.913.322C7.35.035 6.547-.057 5.952.105ZM16.336.105c-.558.147-.9.346-1.315.761-.425.42-.628.762-.762 1.297-.55 2.15 1.486 4.094 3.6 3.438.822-.258 1.472-.872 1.828-1.735.124-.304.133-.364.133-.97 0-.728-.069-1-.383-1.517C18.814.345 17.482-.206 16.337.105ZM26.72.11c-.554.142-.9.34-1.315.756-.425.42-.628.762-.762 1.297a2.96 2.96 0 0 0 .24 2.063c.217.42.803.988 1.242 1.2 1.121.554 2.414.332 3.3-.558a3.07 3.07 0 0 0 .729-1.283c.092-.365.097-1.053 0-1.417C29.762.658 28.206-.278 26.72.109ZM37.105.11c-.521.133-.895.336-1.264.687a2.86 2.86 0 0 0-.757 1.145c-.107.276-.12.373-.12.932 0 .558.014.655.12.932.18.47.392.799.756 1.145 1.385 1.315 3.619.909 4.491-.817.194-.388.282-.78.282-1.279 0-.466-.083-.844-.286-1.255C39.754.423 38.365-.218 37.105.11ZM11.102 6.668c.342.374.678.89 1.015 1.569l.273.544h1.347l.028.217c.018.125.143 1.427.286 2.899.166 1.73.282 2.746.332 2.88.097.272.296.484.582.623.328.161 1.292.235 2.53.194 1.278-.042 1.527-.097 1.836-.406.305-.305.305-.296.582-3.347.138-1.55.253-2.875.253-2.94v-.12H21.643l.25-.498c.3-.605.71-1.223 1.066-1.615l.263-.286H10.834l.268.286ZM4.59 6.474c-.78.106-1.495.605-2.05 1.421-.244.36-.687 1.279-.876 1.81-.074.217-.222.609-.318.877-.208.535-.494 1.555-.683 2.413-.111.49-.12.587-.074.803.11.536.53.887 1.112.928a1.13 1.13 0 0 0 .965-.378c.216-.236.272-.383.516-1.413.199-.812.425-1.555.596-1.938l.092-.208v.3c.005.166.028 1.039.05 1.939.047 1.61.052 1.643.167 1.878.24.498.535.642 1.477.71.761.06 2.248.029 2.723-.054.521-.093.886-.439.983-.933.023-.134.06-.997.074-1.924.018-.928.041-1.726.055-1.777.056-.185.346.71.73 2.229.129.517.253.914.322 1.024a1.2 1.2 0 0 0 1.007.554c.341 0 .627-.11.853-.327.457-.434.471-.665.13-2.036a18.885 18.885 0 0 0-.965-2.926c-.614-1.477-1.172-2.243-1.943-2.667-.572-.319-.581-.319-2.728-.333-1.066-.004-2.063.005-2.215.028ZM25.359 6.474c-.91.124-1.675.729-2.275 1.79-.328.573-.485.956-1.043 2.511-.236.665-.72 2.539-.72 2.802 0 1.024 1.315 1.546 2.067.821.088-.083.185-.207.226-.281.037-.07.19-.61.337-1.2.231-.919.517-1.823.651-2.059.023-.041.041.093.041.346 0 .227.024 1.099.047 1.93.041 1.384.055 1.532.143 1.744.11.254.337.476.618.6.471.208 3.083.236 3.803.042.25-.065.591-.374.711-.646.088-.19.102-.36.148-2.147.041-1.513.06-1.91.101-1.818.17.397.379 1.07.619 2.026.18.71.314 1.145.387 1.255.411.624 1.325.734 1.856.227.226-.222.346-.466.373-.767.019-.249-.258-1.481-.563-2.469-.166-.558-.65-1.786-.955-2.441-.42-.895-1.03-1.63-1.634-1.966-.563-.314-.577-.314-2.723-.328-1.066-.005-2.063.005-2.215.028ZM31.862 6.704c.425.462.882 1.191 1.172 1.879l.107.244h1.61v.148c0 .083.065 1.399.139 2.917.133 2.755.138 2.77.254 3.014.143.286.433.549.673.614.628.17 3.194.17 3.822 0 .235-.06.572-.365.701-.628.093-.198.106-.305.139-1.49.018-.702.037-1.575.037-1.944.004-.383.023-.646.046-.623.092.102.397 1.085.655 2.1.18.72.314 1.14.388 1.255.305.457.872.651 1.426.49.254-.074.637-.457.71-.711.093-.31.065-.53-.156-1.417-.383-1.55-.743-2.585-1.31-3.803-.412-.886-1.04-1.643-1.62-1.966-.633-.35-.328-.328-4.93-.346l-4.126-.014.263.281Z" fill="#5A5A5A" fill-opacity=".64"/></svg>
